X: 1
P: Largo Law
R: strathspey
C: as played by Morgan MacQuarrie., arr. T. Traub 3-14-2005
C: Athole Colln.
M: 4/4
L: 1/8
K: A
|: c|"A"A<cE>F A>Bc>e|"D"f<ae>c "E"B2 B>c|"A"A<cE>F "D"A>Bc>e|"E"f<ae>c "A"A2 A :|
"A"a>fe>c e>fa>e|"D"f<ae>c "E"B2 B>e|"A"a>fe>c "D"e>fa>e|"E"f<ae>c "A"A2 A>e|
"A"a>fe>c e>fa>e|"D"f<ae>c "E"B2 B>c|"A"A<cE>F "D"A>Bc>e|"E"f<ae>c "A"A2 A |]
